icons/communication/emails-24.svg

<svg width="24" height="24" viewBox="0 0 24 24" fill="none" xmlns="http://www.w3.org/2000/svg">
<g clip-path="url(#clip0_248_5)">
<path fill-rule="evenodd" clip-rule="evenodd" d="M1.75 3C0.783502 3 0 3.7835 0 4.75V14.75C0 15.7165 0.783502 16.5 1.75 16.5H16.75C17.7165 16.5 18.5 15.7165 18.5 14.75V4.75C18.5 3.7835 17.7165 3 16.75 3H1.75ZM1.5 4.75C1.5 4.61193 1.61193 4.5 1.75 4.5H16.75C16.8881 4.5 17 4.61193 17 4.75V5.51778L9.61569 10.0491C9.53746 10.0971 9.4392 10.0983 9.35974 10.0524L1.5 5.50494V4.75ZM10.4002 11.3275L17 7.27768V14.75C17 14.8881 16.8881 15 16.75 15H1.75C1.61193 15 1.5 14.8881 1.5 14.75V7.23791L8.60855 11.3507C9.16474 11.6725 9.85254 11.6636 10.4002 11.3275Z" fill="black"/>
<path d="M20.75 7.5C20.3358 7.5 20 7.83579 20 8.25C20 8.66421 20.3358 9 20.75 9H22.25C22.3881 9 22.5 9.11193 22.5 9.25V19.25C22.5 19.3881 22.3881 19.5 22.25 19.5H7.25C7.11193 19.5 7 19.3881 7 19.25V18.75C7 18.3358 6.66421 18 6.25 18C5.83579 18 5.5 18.3358 5.5 18.75V19.25C5.5 20.2165 6.2835 21 7.25 21H22.25C23.2165 21 24 20.2165 24 19.25V9.25C24 8.2835 23.2165 7.5 22.25 7.5H20.75Z" fill="black"/>
</g>
<defs>
<clipPath id="clip0_248_5">
<rect width="24" height="24" fill="white"/>
</clipPath>
</defs>
</svg>

<svg xmlns="http://www.w3.org/2000/svg" width="24" height="24"><path fill-rule="evenodd" d="M1.75 3A1.75 1.75 0 000 4.75v10c0 .966.784 1.75 1.75 1.75h15a1.75 1.75 0 001.75-1.75v-10A1.75 1.75 0 0016.75 3h-15zM1.5 4.75a.25.25 0 01.25-.25h15a.25.25 0 01.25.25v.768l-7.384 4.531a.25.25 0 01-.256.003L1.5 5.505V4.75zm8.9 6.578l6.6-4.05v7.472a.25.25 0 01-.25.25h-15a.25.25 0 01-.25-.25V7.238l7.109 4.113a1.75 1.75 0 001.791-.024z"/><path d="M20.75 7.5a.75.75 0 000 1.5h1.5a.25.25 0 01.25.25v10a.25.25 0 01-.25.25h-15a.25.25 0 01-.25-.25v-.5a.75.75 0 00-1.5 0v.5c0 .966.784 1.75 1.75 1.75h15A1.75 1.75 0 0024 19.25v-10a1.75 1.75 0 00-1.75-1.75h-1.5z"/></svg>
